X: 1
T: Bunker Hill
R: reel
M: 4/4
L: 1/8
K: Dmix
cA|GEcE D2ED|(3EFG AB ~c2Bc| ABAG EF~G2| ABcA d2 :||
cA|Gc~c2 ec~c2 | Gc{d}cB cBAG | Ad~d2 fd~d2 | Ad{e}dB cBAG |
(3EFG AB cAdB | cAdB c2Bc| (3dcB (3cBA BGAF | GBcA d2 ||
ge|fd~d2 ad~d2 | fadf a2gf | ge (3eee gebe | gbeg b2ag |
fd~d2 fdad |dBAB ~c2Bc | (3dcB (3cBA BGAF | GBcA d2 ||


Tune 207	Setting 12871

